packages/foundations/assets/icons/functional/images/business & payment/tickets_24.svg

<svg width="24" height="24" viewBox="0 0 24 24" fill="none" xmlns="http://www.w3.org/2000/svg">
<g clip-path="url(#clip0_184_165)">
<path fill-rule="evenodd" clip-rule="evenodd" d="M2 19V9C2 8.20435 2.31607 7.44129 2.87868 6.87868C3.44129 6.31607 4.20435 6 5 6H12C12.7956 6 13.5587 6.31607 14.1213 6.87868C14.6839 7.44129 15 8.20435 15 9V19C15 19.7956 14.6839 20.5587 14.1213 21.1213C13.5587 21.6839 12.7956 22 12 22H5C4.20435 22 3.44129 21.6839 2.87868 21.1213C2.31607 20.5587 2 19.7956 2 19ZM4 19C4 19.531 4.469 20 5 20H12C12.531 20 13 19.531 13 19V9C13 8.437 12.531 8 12 8H5C4.469 8 4 8.438 4 9V19ZM6 17C6 17.531 6.469 18 7 18C7.563 18 8 17.531 8 17C8 16.437 7.562 16 7 16C6.469 16 6 16.438 6 17ZM9 17C9 17.531 9.438 18 10 18C10.531 18 11 17.531 11 17C11 16.437 10.531 16 10 16C9.437 16 9 16.438 9 17ZM11 3C11 2.437 11.469 2 12 2H19C19.7956 2 20.5587 2.31607 21.1213 2.87868C21.6839 3.44129 22 4.20435 22 5V15C22 16.563 20.719 18 19 18H18C17.469 18 17.031 17.531 17.031 17C17.031 16.437 17.469 16 18 16H19C19.531 16 20 15.562 20 15V5C20 4.469 19.531 4 19 4H12C11.469 4 11 3.562 11 3Z" fill="#1A1C1F"/>
</g>
<defs>
<clipPath id="clip0_184_165">
<rect width="24" height="24" fill="white"/>
</clipPath>
</defs>
</svg>

<svg xmlns="http://www.w3.org/2000/svg" width="24" height="24" fill="none"><g clip-path="url(#a)"><path fill="#1A1C1F" fill-rule="evenodd" d="M2 19V9a3 3 0 0 1 3-3h7a3 3 0 0 1 3 3v10a3 3 0 0 1-3 3H5a3 3 0 0 1-3-3m2 0c0 .531.469 1 1 1h7c.531 0 1-.469 1-1V9c0-.563-.469-1-1-1H5c-.531 0-1 .438-1 1zm2-2c0 .531.469 1 1 1 .563 0 1-.469 1-1 0-.563-.438-1-1-1-.531 0-1 .438-1 1m3 0c0 .531.438 1 1 1 .531 0 1-.469 1-1 0-.563-.469-1-1-1-.563 0-1 .438-1 1m2-14c0-.563.469-1 1-1h7a3 3 0 0 1 3 3v10c0 1.563-1.281 3-3 3h-1c-.531 0-.969-.469-.969-1 0-.563.438-1 .969-1h1c.531 0 1-.438 1-1V5c0-.531-.469-1-1-1h-7c-.531 0-1-.438-1-1" clip-rule="evenodd"/></g><defs><clipPath id="a"><path fill="#fff" d="M0 0h24v24H0z"/></clipPath></defs></svg>
